X: 0812
T: GRAY'S REEL
B: Oliver Ditson "The Boston Collection of Instrumental Music" 1910 p.81 #2
F: http://conquest.imslp.info/files/imglnks/usimg/8/8f/IMSLP175643-PMLP309456-bostoncollection00bost_bw.pdf
%: 2012 John Chambers <jc:trillian.mit.edu>
M: 4/4
L: 1/8
K: D
F |\
DFAF DGBG | FAdF GEEF |\
DFAF G/A/B/c/ dg | fd e/f/g/e/ fdd :|
g |\
~fdaf ~gebg | ~fdaf Tgeeg |\
~fdaf gbag | fd AG FDD ||
g |\
fd f/g/a/f/ ge g/a/b/g/ | fd f/g/a/f/ geeg |\
fd AF G/A/B/c/ dg | fd e/f/g/e/ fdd |]

%%sep 1 1 500
%%sep 1 1 500
